!! 00010] TT[TB
!! Eigene Aufnahme
!!!OTL: Xiu jixiang hua wen The hat with the spiral ornament on the top
!!!ARE: Neimeng
!! Ethnic Group: Menggu
!! MM, S. 701-2
!!!SCT: C0557
!!!YEM: Copyright 1995, estate of Helmut Schaffrath.
**kern
*ICvox
*Ivox
*M2/4
*k[]
*C:
{4G
4d
=1
8d
8e
8d
8G
=2
4g
8a
8cc
=3
2g}
=4
{8e
8g
4a
=5
8cc
4g
8d
=6
8g
8d
8e
8g
=7
2d}
=8
{4.G
8d
=9
8d
8e
8d
8A
=10
4g
8a
8cc
=11
2c}
=12
{8A
8c
4d
=13
8d
8e
4g
=14
8G
8A
8c
8d
=15
2G}
=16
{8c
8A
8G
8g
=17
4d
4g
=18
8c
8A
8G
8g
=19
2d}
=20
{8d
8e
4g
=21
8e
8g
8e
8d
=22
8G
8A
8c
8d
=23
2G}
=24
{8c
16A
16A
8G
8g
=25
2d
=26
8c
16A
16A
8G
8g
=27
2d}
=28
{8d
8e
4g
=29
8e
8g
8e
8d
=30
8G
8A
8c
8d
=31
2G}
=32
{8c
8A
8G
8g
=33
4d
4g
=34
8c
8A
8G
8g
=35
2d}
=36
{8d
8e
4g
=37
8e
8g
8e
8d
=38
8G
8A
8c
8d
=39
2G}
=40
{8c
16A
16A
8G
8g
=41
2d
=42
8c
16A
16A
8G
8g
=43
2d}
=44
{8d
8e
4g
=45
8e
8g
8e
8d
=46
8G
8A
8c
8d
=47
2G}
==
!!!AGN: NN
!! Saenger: Chao Lun Batou, der das Buch nur zum Nachschlagen
!!    benutzte und ansonsten auswendig sang. Da er aus dem Osten der
!!    Neimeng kommt, kennt er nicht so viele Lieder des Westens.
!!    Alle Lieder wurden mit erkaelteter, halber Stimme in meinem
!!    Zimmer gesungen. FOTO VORHANDEN (DIAS)  31.3.87
!!    VARIANTE ODER ANDERES LIED.
!!!ONB: ESAC (Essen Associative Code) Database: CHINA
!!!AMT: simple duple
!!!AIN: vox
!!!EED: Helmut Schaffrath
!!!EEV: 1.0
*-
